src/epub/images/titlepage.svg

<?xml version="1.0" encoding="utf-8"?>
<svg xmlns="http://www.w3.org/2000/svg" xmlns:svg="http://www.w3.org/2000/svg" version="1.1" viewBox="0 0 1400 340">
	<title>The titlepage for the Standard Ebooks edition of The Woman in White, by Wilkie Collins</title>
	<g>
		<path d="m 117.40423,68.245613 18.33918,0 0,61.754387 17.59065,0 0,-61.754387 18.33918,0 0,-15.438597 -54.26901,0 0,15.438597 z"/>
		<path d="m 200.59868,99.029239 24.88888,0 0,30.970761 17.59065,0 0,-77.192984 -17.59065,0 0,30.783626 -24.88888,0 0,-30.783626 -17.59065,0 0,77.192984 17.59065,0 0,-30.970761 z"/>
		<path d="m 303.44371,52.807016 -44.16374,0 0,77.192984 44.16374,0 0,-15.4386 -26.5731,0 0,-15.532161 25.45029,0 0,-15.438597 -25.45029,0 0,-15.345029 26.5731,0 0,-15.438597 z"/>
		<path d="m 400.32821,130 19.46199,0 21.98831,-77.192984 -19.46199,0 -13.19299,52.959064 -0.46783,0 -14.03509,-52.959064 -13.28655,0 -14.03509,52.959064 -0.46783,0 -13.19299,-52.959064 -19.55555,0 L 356.0709,130 375.62646,130 387.97734,86.678362 400.32821,130 Z"/>
		<path d="m 444.61185,91.356724 c 0,22.549706 16.09356,40.046786 38.92397,40.046786 22.17544,0 38.83041,-17.49708 38.83041,-40.046786 0,-22.549708 -17.40351,-39.953217 -38.83041,-39.953217 -21.23976,0 -38.92397,17.403509 -38.92397,39.953217 z m 18.99415,0 c 0,-11.508772 6.36257,-23.017544 19.92982,-23.017544 13.66082,0 19.83626,11.508772 19.83626,23.017544 0,11.508776 -5.80117,23.017546 -19.83626,23.017546 -14.40935,0 -19.92982,-11.50877 -19.92982,-23.017546 z"/>
		<path d="m 598.94078,130 17.59064,0 -6.92397,-77.192984 -18.71345,0 -17.12281,44.538013 -17.12281,-44.538013 -18.71345,0 L 531.01095,130 l 17.59065,0 3.64912,-45.754387 0.46784,0 15.81286,45.286547 10.47953,0 15.81287,-45.286547 0.46784,0 L 598.94078,130 Z"/>
		<path d="m 667.78291,52.807016 -16.2807,0 L 620.34431,130 l 18.90059,0 5.7076,-15.4386 29.38012,0 5.7076,15.4386 18.90058,0 -31.15789,-77.192984 z m 0.5614,46.31579 -17.40351,0 8.60819,-22.45614 0.18713,0 8.60819,22.45614 z"/>
		<path d="m 724.45101,82.093566 0.18713,0 L 755.3282,130 l 17.59065,0 0,-77.192984 -17.59065,0 0,47.906434 -0.18713,0 -30.69006,-47.906434 -17.59065,0 0,77.192984 17.59065,0 0,-47.906434 z"/>
		<path d="m 837.33846,52.807016 -17.59064,0 0,77.192984 17.59064,0 0,-77.192984 z"/>
		<path d="m 871.21273,82.093566 0.18713,0 L 902.08992,130 l 17.59064,0 0,-77.192984 -17.59064,0 0,47.906434 -0.18713,0 -30.69006,-47.906434 -17.59065,0 0,77.192984 17.59065,0 0,-47.906434 z"/>
		<path d="m 1017.6967,130 19.4619,0 21.9883,-77.192984 -19.4619,0 -13.193,52.959064 -0.4679,0 -14.0351,-52.959064 -13.2865,0 -14.03509,52.959064 -0.46784,0 -13.19298,-52.959064 -19.55555,0 L 973.43934,130 992.9949,130 1005.3458,86.678362 1017.6967,130 Z"/>
		<path d="m 1085.9569,99.029239 24.8889,0 0,30.970761 17.5906,0 0,-77.192984 -17.5906,0 0,30.783626 -24.8889,0 0,-30.783626 -17.5907,0 0,77.192984 17.5907,0 0,-30.970761 z"/>
		<path d="m 1162.2288,52.807016 -17.5906,0 0,77.192984 17.5906,0 0,-77.192984 z"/>
		<path d="m 1169.0782,68.245613 18.3392,0 0,61.754387 17.5906,0 0,-61.754387 18.3392,0 0,-15.438597 -54.269,0 0,15.438597 z"/>
		<path d="m 1278.8458,52.807016 -44.1637,0 0,77.192984 44.1637,0 0,-15.4386 -26.5731,0 0,-15.532161 25.4503,0 0,-15.438597 -25.4503,0 0,-15.345029 26.5731,0 0,-15.438597 z"/>
	</g>
	<g>
		<path d="m 419.32511,290 14.59649,0 16.49123,-57.89474 -14.59649,0 -9.89474,39.7193 -0.35087,0 -10.52632,-39.7193 -9.96491,0 -10.52632,39.7193 -0.35087,0 -9.89474,-39.7193 -14.66667,0 L 386.13213,290 400.7988,290 410.06195,257.50877 419.32511,290 Z"/>
		<path d="m 471.77029,232.10526 -13.19298,0 0,57.89474 13.19298,0 0,-57.89474 z"/>
		<path d="m 498.42599,232.10526 -13.19298,0 0,57.89474 33.12281,0 0,-11.57895 -19.92983,0 0,-46.31579 z"/>
		<path d="m 582.54551,290 -26.94737,-30.45614 23.29825,-27.4386 -16,0 -19.85965,23.64913 0,-23.64913 -13.19298,0 0,57.89474 13.19298,0 0,-24.5614 21.33333,24.5614 18.17544,0 z"/>
		<path d="m 603.27249,232.10526 -13.19298,0 0,57.89474 13.19298,0 0,-57.89474 z"/>
		<path d="m 649.85801,232.10526 -33.1228,0 0,57.89474 33.1228,0 0,-11.57895 -19.92982,0 0,-11.64912 19.08772,0 0,-11.57895 -19.08772,0 0,-11.50877 19.92982,0 0,-11.57895 z"/>
		<path d="m 715.24507,278.07018 c -13.26315,0 -19.08772,-9.26316 -19.08772,-17.05264 0,-7.71929 5.82457,-16.98245 19.08772,-16.98245 6.73685,0 11.36842,3.57895 11.36842,3.57895 l 5.61404,-11.22807 c 0,0 -6.45614,-5.33334 -19.01754,-5.33334 -16.42106,0 -31.36842,13.47369 -31.36842,30.10527 0,16.5614 15.01754,29.89473 31.36842,29.89473 12.5614,0 19.01754,-5.33333 19.01754,-5.33333 l -5.61404,-11.22807 c 0,0 -4.63157,3.57895 -11.36842,3.57895 z"/>
		<path d="m 739.74727,261.01754 c 0,16.91228 12.07017,30.03509 29.19298,30.03509 16.63158,0 29.1228,-13.12281 29.1228,-30.03509 0,-16.91228 -13.05263,-29.96491 -29.1228,-29.96491 -15.92983,0 -29.19298,13.05263 -29.19298,29.96491 z m 14.24561,0 c 0,-8.63157 4.77193,-17.26315 14.94737,-17.26315 10.24561,0 14.87719,8.63158 14.87719,17.26315 0,8.63158 -4.35088,17.26316 -14.87719,17.26316 -10.80702,0 -14.94737,-8.63158 -14.94737,-17.26316 z"/>
		<path d="m 822.0773,232.10526 -13.19299,0 0,57.89474 33.12281,0 0,-11.57895 -19.92982,0 0,-46.31579 z"/>
		<path d="m 866.68805,232.10526 -13.19299,0 0,57.89474 33.12281,0 0,-11.57895 -19.92982,0 0,-46.31579 z"/>
		<path d="m 911.29876,232.10526 -13.19298,0 0,57.89474 13.19298,0 0,-57.89474 z"/>
		<path d="m 937.95446,254.07018 0.14035,0 23.01755,35.92982 13.19298,0 0,-57.89474 -13.19298,0 0,35.92983 -0.14035,0 -23.01755,-35.92983 -13.19298,0 0,57.89474 13.19298,0 0,-35.92982 z"/>
		<path d="m 1007.7012,231.05263 c -9.33333,0 -18.87719,6.8772 -18.87719,17.68421 0,6.03509 4.07017,11.4386 11.01754,14.8772 6.87715,3.43859 13.05265,5.33333 13.05265,9.54385 0,5.40351 -5.4737,5.68422 -8.3509,5.68422 -6.45614,0 -14.17543,-6.52632 -14.17543,-6.52632 l -6.5965,11.08772 c 0,0 8.21053,7.64912 21.75443,7.64912 11.2982,0 21.8245,-4.8421 21.8245,-18.66666 0,-7.57895 -7.0877,-13.05264 -13.5438,-15.78948 -6.5965,-2.80702 -12.0702,-5.12281 -12.0702,-8.35088 0,-3.15789 2.386,-5.19298 6.8772,-5.19298 5.9649,0 11.7193,4 11.7193,4 l 5.3333,-10.52631 c 0,0 -7.4386,-5.47369 -17.9649,-5.47369 z"/>
	</g>
</svg>

<?xml version="1.0" encoding="utf-8"?>
<svg xmlns="http://www.w3.org/2000/svg" xmlns:svg="http://www.w3.org/2000/svg" version="1.1" viewBox="0 0 1400 340">
	<title>The titlepage for the Standard Ebooks edition of The Woman in White, by Wilkie Collins</title>
	<g aria-label="THE WOMAN IN WHITE">
		<path d="m 117.40423,68.245613 h 18.33918 V 130 h 17.59065 V 68.245613 h 18.33918 V 52.807016 h -54.26901 z"/>
		<path d="m 200.59868,99.029239 h 24.88888 V 130 h 17.59065 V 52.807016 H 225.48756 V 83.590642 H 200.59868 V 52.807016 H 183.00803 V 130 h 17.59065 z"/>
		<path d="M 303.44371,52.807016 H 259.27997 V 130 h 44.16374 v -15.4386 h -26.5731 V 99.029239 H 302.3209 V 83.590642 H 276.87061 V 68.245613 h 26.5731 z"/>
		<path d="M 400.32821,130 H 419.7902 L 441.77851,52.807016 H 422.31652 L 409.12353,105.76608 H 408.6557 L 394.62061,52.807016 h -13.28655 l -14.03509,52.959064 h -0.46783 L 353.63815,52.807016 H 334.0826 L 356.0709,130 h 19.55556 l 12.35088,-43.321638 z"/>
		<path d="m 444.61185,91.356724 c 0,22.549706 16.09356,40.046786 38.92397,40.046786 22.17544,0 38.83041,-17.49708 38.83041,-40.046786 0,-22.549708 -17.40351,-39.953217 -38.83041,-39.953217 -21.23976,0 -38.92397,17.403509 -38.92397,39.953217 z m 18.99415,0 c 0,-11.508772 6.36257,-23.017544 19.92982,-23.017544 13.66082,0 19.83626,11.508772 19.83626,23.017544 0,11.508776 -5.80117,23.017546 -19.83626,23.017546 -14.40935,0 -19.92982,-11.50877 -19.92982,-23.017546 z"/>
		<path d="m 598.94078,130 h 17.59064 L 609.60745,52.807016 H 590.894 L 573.77119,97.345029 556.64838,52.807016 H 537.93493 L 531.01095,130 h 17.59065 l 3.64912,-45.754387 h 0.46784 l 15.81286,45.286547 h 10.47953 l 15.81287,-45.286547 h 0.46784 z"/>
		<path d="m 667.78291,52.807016 h -16.2807 L 620.34431,130 h 18.90059 l 5.7076,-15.4386 h 29.38012 L 680.04022,130 h 18.90058 z m 0.5614,46.31579 H 650.9408 l 8.60819,-22.45614 h 0.18713 z"/>
		<path d="m 724.45101,82.093566 h 0.18713 L 755.3282,130 h 17.59065 V 52.807016 H 755.3282 v 47.906434 h -0.18713 L 724.45101,52.807016 H 706.86036 V 130 h 17.59065 z"/>
		<path d="M 837.33846,52.807016 H 819.74782 V 130 h 17.59064 z"/>
		<path d="m 871.21273,82.093566 h 0.18713 L 902.08992,130 h 17.59064 V 52.807016 h -17.59064 v 47.906434 h -0.18713 L 871.21273,52.807016 H 853.62208 V 130 h 17.59065 z"/>
		<path d="m 1017.6967,130 h 19.4619 l 21.9883,-77.192984 h -19.4619 l -13.193,52.959064 h -0.4679 L 1011.989,52.807016 h -13.2865 l -14.03509,52.959064 h -0.46784 L 971.00659,52.807016 H 951.45104 L 973.43934,130 h 19.55556 l 12.3509,-43.321638 z"/>
		<path d="m 1085.9569,99.029239 h 24.8889 V 130 h 17.5906 V 52.807016 h -17.5906 v 30.783626 h -24.8889 V 52.807016 h -17.5907 V 130 h 17.5907 z"/>
		<path d="m 1162.2288,52.807016 h -17.5906 V 130 h 17.5906 z"/>
		<path d="m 1169.0782,68.245613 h 18.3392 V 130 h 17.5906 V 68.245613 h 18.3392 V 52.807016 h -54.269 z"/>
		<path d="m 1278.8458,52.807016 h -44.1637 V 130 h 44.1637 v -15.4386 h -26.5731 V 99.029239 h 25.4503 V 83.590642 h -25.4503 V 68.245613 h 26.5731 z"/>
	</g>
	<g aria-label="WILKIE COLLINS">
		<path d="m 419.32511,290 h 14.59649 l 16.49123,-57.89474 h -14.59649 l -9.89474,39.7193 h -0.35087 l -10.52632,-39.7193 h -9.96491 l -10.52632,39.7193 h -0.35087 l -9.89474,-39.7193 H 369.6409 L 386.13213,290 h 14.66667 l 9.26315,-32.49123 z"/>
		<path d="M 471.77029,232.10526 H 458.57731 V 290 h 13.19298 z"/>
		<path d="M 498.42599,232.10526 H 485.23301 V 290 h 33.12281 v -11.57895 h -19.92983 z"/>
		<path d="m 582.54551,290 -26.94737,-30.45614 23.29825,-27.4386 h -16 l -19.85965,23.64913 V 232.10526 H 529.84376 V 290 h 13.19298 V 265.4386 L 564.37007,290 Z"/>
		<path d="M 603.27249,232.10526 H 590.07951 V 290 h 13.19298 z"/>
		<path d="m 649.85801,232.10526 h -33.1228 V 290 h 33.1228 v -11.57895 h -19.92982 v -11.64912 h 19.08772 v -11.57895 h -19.08772 v -11.50877 h 19.92982 z"/>
		<path d="m 715.24507,278.07018 c -13.26315,0 -19.08772,-9.26316 -19.08772,-17.05264 0,-7.71929 5.82457,-16.98245 19.08772,-16.98245 6.73685,0 11.36842,3.57895 11.36842,3.57895 l 5.61404,-11.22807 c 0,0 -6.45614,-5.33334 -19.01754,-5.33334 -16.42106,0 -31.36842,13.47369 -31.36842,30.10527 0,16.5614 15.01754,29.89473 31.36842,29.89473 12.5614,0 19.01754,-5.33333 19.01754,-5.33333 l -5.61404,-11.22807 c 0,0 -4.63157,3.57895 -11.36842,3.57895 z"/>
		<path d="m 739.74727,261.01754 c 0,16.91228 12.07017,30.03509 29.19298,30.03509 16.63158,0 29.1228,-13.12281 29.1228,-30.03509 0,-16.91228 -13.05263,-29.96491 -29.1228,-29.96491 -15.92983,0 -29.19298,13.05263 -29.19298,29.96491 z m 14.24561,0 c 0,-8.63157 4.77193,-17.26315 14.94737,-17.26315 10.24561,0 14.87719,8.63158 14.87719,17.26315 0,8.63158 -4.35088,17.26316 -14.87719,17.26316 -10.80702,0 -14.94737,-8.63158 -14.94737,-17.26316 z"/>
		<path d="M 822.0773,232.10526 H 808.88431 V 290 h 33.12281 V 278.42105 H 822.0773 Z"/>
		<path d="M 866.68805,232.10526 H 853.49506 V 290 h 33.12281 v -11.57895 h -19.92982 z"/>
		<path d="M 911.29876,232.10526 H 898.10578 V 290 h 13.19298 z"/>
		<path d="m 937.95446,254.07018 h 0.14035 L 961.11236,290 h 13.19298 v -57.89474 h -13.19298 v 35.92983 h -0.14035 L 937.95446,232.10526 H 924.76148 V 290 h 13.19298 z"/>
		<path d="m 1007.7012,231.05263 c -9.33333,0 -18.87719,6.8772 -18.87719,17.68421 0,6.03509 4.07017,11.4386 11.01754,14.8772 6.87715,3.43859 13.05265,5.33333 13.05265,9.54385 0,5.40351 -5.4737,5.68422 -8.3509,5.68422 -6.45614,0 -14.17543,-6.52632 -14.17543,-6.52632 l -6.5965,11.08772 c 0,0 8.21053,7.64912 21.75443,7.64912 11.2982,0 21.8245,-4.8421 21.8245,-18.66666 0,-7.57895 -7.0877,-13.05264 -13.5438,-15.78948 -6.5965,-2.80702 -12.0702,-5.12281 -12.0702,-8.35088 0,-3.15789 2.386,-5.19298 6.8772,-5.19298 5.9649,0 11.7193,4 11.7193,4 l 5.3333,-10.52631 c 0,0 -7.4386,-5.47369 -17.9649,-5.47369 z"/>
	</g>
</svg>
